dist/svg/bar-duo-tone.svg

<svg xmlns="http://www.w3.org/2000/svg" viewBox="0 0 24 24"><path d="M11.44 3.145c-.41.078-.811.217-1.323.458a7 7 0 0 1-.902.358c-.402.103-.915.102-1.477-.002-.443-.082-1.137-.111-1.438-.06-.732.125-1.406.6-1.739 1.226a3 3 0 0 0-.207.542c-.114.42-.122 1.152-.018 1.553a2.5 2.5 0 0 0 1.622 1.727l.262.089.02 4.732.02 4.732.109.32c.151.445.362.783.695 1.116s.671.544 1.116.695l.32.109h7l.32-.109a2.74 2.74 0 0 0 1.116-.695c.336-.336.548-.678.69-1.116.09-.277.107-.411.124-.987l.02-.666.185-.046c.998-.251 1.934-1.018 2.416-1.981.292-.584.434-1.397.356-2.034a4.3 4.3 0 0 0-.356-1.246 4.1 4.1 0 0 0-1.191-1.404 4.6 4.6 0 0 0-1.157-.557l-.266-.072.012-.396.011-.396.262-.088c.58-.195 1.143-.663 1.404-1.167.218-.422.291-.755.288-1.32-.005-.763-.188-1.304-.604-1.779-.332-.379-.905-.693-1.426-.781-.303-.051-1.003-.023-1.444.058-.569.104-1.076.105-1.475.003-.169-.043-.574-.204-.901-.358-.797-.375-1.079-.449-1.784-.464a7 7 0 0 0-.66.006m1.14 1.539c.088.024.421.165.74.314.9.418 1.36.535 2.12.539.356.002.654-.025 1.037-.092.963-.169 1.369-.071 1.619.394.206.38.189.982-.037 1.314a1.2 1.2 0 0 1-.595.415c-.275.08-.835.053-1.333-.064-.902-.211-1.561-.207-2.851.02-1.019.18-1.541.18-2.56 0-1.275-.224-1.935-.231-2.831-.028-.59.134-.869.158-1.17.104-.611-.111-.913-.437-.951-1.028-.033-.512.124-.882.455-1.076.268-.157.618-.171 1.3-.051.383.067.681.094 1.037.092.757-.004 1.239-.125 2.08-.524.514-.244.795-.347 1.06-.388.174-.026.694.008.88.059M10.5 9.03c1.229.203 1.807.201 3.02-.007 1.176-.202 1.569-.202 2.451.003l.27.063-.01 4.625-.011 4.626-.099.195c-.13.253-.467.559-.707.641-.167.057-.557.064-3.414.064s-3.247-.007-3.414-.064c-.24-.082-.577-.388-.707-.641l-.099-.195-.011-4.626-.01-4.625.27-.063c.913-.214 1.147-.214 2.471.004m-.8 1.286a.73.73 0 0 0-.398.413c-.054.13-.062.543-.061 3.28.001 2.958.005 3.14.075 3.291a.743.743 0 0 0 1.368 0c.07-.151.074-.332.074-3.3s-.004-3.149-.074-3.3c-.181-.392-.607-.558-.984-.384m4 0a.73.73 0 0 0-.398.413c-.054.13-.062.543-.061 3.28.001 2.958.005 3.14.075 3.291a.743.743 0 0 0 1.368 0c.07-.151.074-.332.074-3.3s-.004-3.149-.074-3.3c-.181-.392-.607-.558-.984-.384m4.414 1.234c.382.231.705.576.889.95.486.988.232 2.075-.655 2.794-.17.138-.47.306-.546.306-.029 0-.042-.673-.042-2.1 0-1.712.01-2.1.053-2.1.029 0 .164.068.301.15"/></svg>

<svg fill="none" xmlns="http://www.w3.org/2000/svg" viewBox="0 0 24 24"><path d="M11.440 3.145 C 11.030 3.223,10.629 3.362,10.117 3.603 C 9.790 3.757,9.384 3.918,9.215 3.961 C 8.813 4.064,8.300 4.063,7.738 3.959 C 7.295 3.877,6.601 3.848,6.300 3.899 C 5.568 4.024,4.894 4.499,4.561 5.125 C 4.493 5.251,4.400 5.496,4.354 5.667 C 4.240 6.087,4.232 6.819,4.336 7.220 C 4.545 8.023,5.161 8.679,5.958 8.947 L 6.220 9.036 6.240 13.768 L 6.260 18.500 6.369 18.820 C 6.520 19.265,6.731 19.603,7.064 19.936 C 7.397 20.269,7.735 20.480,8.180 20.631 L 8.500 20.740 12.000 20.740 L 15.500 20.740 15.820 20.631 C 16.265 20.480,16.603 20.269,16.936 19.936 C 17.272 19.600,17.484 19.258,17.626 18.820 C 17.716 18.543,17.733 18.409,17.750 17.833 L 17.770 17.167 17.955 17.121 C 18.953 16.870,19.889 16.103,20.371 15.140 C 20.663 14.556,20.805 13.743,20.727 13.106 C 20.676 12.690,20.529 12.176,20.371 11.860 C 20.109 11.338,19.647 10.792,19.180 10.456 C 18.903 10.255,18.341 9.985,18.023 9.899 L 17.757 9.827 17.769 9.431 L 17.780 9.035 18.042 8.947 C 18.622 8.752,19.185 8.284,19.446 7.780 C 19.664 7.358,19.737 7.025,19.734 6.460 C 19.729 5.697,19.546 5.156,19.130 4.681 C 18.798 4.302,18.225 3.988,17.704 3.900 C 17.401 3.849,16.701 3.877,16.260 3.958 C 15.691 4.062,15.184 4.063,14.785 3.961 C 14.616 3.918,14.211 3.757,13.884 3.603 C 13.087 3.228,12.805 3.154,12.100 3.139 C 11.792 3.132,11.495 3.135,11.440 3.145 M12.580 4.684 C 12.668 4.708,13.001 4.849,13.320 4.998 C 14.220 5.416,14.680 5.533,15.440 5.537 C 15.796 5.539,16.094 5.512,16.477 5.445 C 17.440 5.276,17.846 5.374,18.096 5.839 C 18.302 6.219,18.285 6.821,18.059 7.153 C 17.942 7.325,17.687 7.503,17.464 7.568 C 17.189 7.648,16.629 7.621,16.131 7.504 C 15.229 7.293,14.570 7.297,13.280 7.524 C 12.261 7.704,11.739 7.704,10.720 7.524 C 9.445 7.300,8.785 7.293,7.889 7.496 C 7.299 7.630,7.020 7.654,6.719 7.600 C 6.108 7.489,5.806 7.163,5.768 6.572 C 5.735 6.060,5.892 5.690,6.223 5.496 C 6.491 5.339,6.841 5.325,7.523 5.445 C 7.906 5.512,8.204 5.539,8.560 5.537 C 9.317 5.533,9.799 5.412,10.640 5.013 C 11.154 4.769,11.435 4.666,11.700 4.625 C 11.874 4.599,12.394 4.633,12.580 4.684 M10.500 9.030 C 11.729 9.233,12.307 9.231,13.520 9.023 C 14.696 8.821,15.089 8.821,15.971 9.026 L 16.241 9.089 16.231 13.714 L 16.220 18.340 16.121 18.535 C 15.991 18.788,15.654 19.094,15.414 19.176 C 15.247 19.233,14.857 19.240,12.000 19.240 C 9.143 19.240,8.753 19.233,8.586 19.176 C 8.346 19.094,8.009 18.788,7.879 18.535 L 7.780 18.340 7.769 13.714 L 7.759 9.089 8.029 9.026 C 8.942 8.812,9.176 8.812,10.500 9.030 M9.700 10.316 C 9.506 10.405,9.384 10.532,9.302 10.729 C 9.248 10.859,9.240 11.272,9.241 14.009 C 9.242 16.967,9.246 17.149,9.316 17.300 C 9.594 17.904,10.406 17.904,10.684 17.300 C 10.754 17.149,10.758 16.968,10.758 14.000 C 10.758 11.032,10.754 10.851,10.684 10.700 C 10.503 10.308,10.077 10.142,9.700 10.316 M13.700 10.316 C 13.506 10.405,13.384 10.532,13.302 10.729 C 13.248 10.859,13.240 11.272,13.241 14.009 C 13.242 16.967,13.246 17.149,13.316 17.300 C 13.594 17.904,14.406 17.904,14.684 17.300 C 14.754 17.149,14.758 16.968,14.758 14.000 C 14.758 11.032,14.754 10.851,14.684 10.700 C 14.503 10.308,14.077 10.142,13.700 10.316 M18.114 11.550 C 18.496 11.781,18.819 12.126,19.003 12.500 C 19.489 13.488,19.235 14.575,18.348 15.294 C 18.178 15.432,17.878 15.600,17.802 15.600 C 17.773 15.600,17.760 14.927,17.760 13.500 C 17.760 11.788,17.770 11.400,17.813 11.400 C 17.842 11.400,17.977 11.468,18.114 11.550 " stroke="none" fill-rule="evenodd"/></svg>
